X: 106
T:Soun (3)
M:2/4
L:1/8
C:Stephane Rogowski
D:Les Brayauds : Jusqu'au Petit Matin, Silex Y225202
R:Bourree
Z:Steve Mansfield
K:C
fe2d | g4 | ga-ag | fe de | fe2d | g4 | fe2c |1 d2 e2 :|2 f4 |: fe2c |
d3 c/d/ | ed2c | Ac de | fe2c | d4| ge2c |1d2e2 :|2 f4 ||

